X: 20
T: No_28_Badger_Medicine_Song.krn
N: Derived from No_28_Badger_Medicine_Song.krn
%%abc-version 2.0
%%abcx-abcm2ps-target-version 5.9.1 (29 Sep 2008)
%%abc-creator hum2abc beta
%%abcx-conversion-date 2019/03/15 08:27:55
%%humdrum-veritas 745698077
%%humdrum-veritas-data 3778865359
%%linebreak <none>
%%barnumbers 0
L: 1/16
M: 3/4
K: E clef=bass
[K:clef=bass][M:3/4]DC2 z DC2G, G,2G, z | 
DC2 z DC2G, G,2G, z | 
G,F,2 z (G,G,2F, E,2)E, z | 
C,C,3 C,C,2C, C,2C, z | 
G,F,3 (G,G,2F, E,2E,) z | 
C,C,3 C,C,2C, C,2C, z | 
E,E,3 C,C,2C, C,C,3 | 
C,C,2C, C,C,3z4 |]  



